X: 4093
T: TAILOR TARTAN
C: A. M. Volti
R: Reel.
%R: reel
B: James Kerr "Merry Melodies" v.4 p.12 #93
Z: 2016 John Chambers <jc:trillian.mit.edu>
M: C|
L: 1/8
K: G
ud2 |\
Bcde d2g2 | egfe d2B2 |\
cded cBAG |[1 FGAB A2 :|[2 FAed G2 |:\
(GF) |\
E2e2 gaba | gfe^d efge |\
fgfe f2B2 |[1 fgfe f2 :|[2 fagf e2 |]

%%sep 1 1 500
%%sep 1 1 500

